svg/fluentui-system-icons/ic_fluent_comment_multiple_checkmark_20_filled.svg

<svg width="20" height="20" viewBox="0 0 20 20" fill="none" xmlns="http://www.w3.org/2000/svg">
<path d="M6.5 2C5.28015 2 4.26436 2.87367 4.04422 4.02941C4.1934 4.01001 4.34553 4 4.5 4H12.5C14.433 4 16 5.567 16 7.5V9.20703C16.7424 9.41701 17.421 9.77896 18 10.2572V6C18 3.79086 16.2091 2 14 2H6.5ZM15 7.5V9.02242C14.8353 9.00758 14.6685 9 14.5 9C11.4624 9 9 11.4624 9 14.5C9 15.02 9.07217 15.5232 9.20703 16H9.16023L6.58124 17.8421C5.91937 18.3149 5 17.8418 5 17.0284V16H4.5C3.11929 16 2 14.8807 2 13.5V7.5C2 6.29052 2.85888 5.28164 4 5.05001C4.16156 5.01722 4.32877 5 4.5 5H12.5C13.8807 5 15 6.11929 15 7.5ZM19 14.5C19 12.0147 16.9853 10 14.5 10C12.0147 10 10 12.0147 10 14.5C10 16.9853 12.0147 19 14.5 19C16.9853 19 19 16.9853 19 14.5ZM16.8536 12.6464C17.0488 12.8417 17.0488 13.1583 16.8536 13.3536L13.8536 16.3536C13.6583 16.5488 13.3417 16.5488 13.1464 16.3536L12.1464 15.3536C11.9512 15.1583 11.9512 14.8417 12.1464 14.6464C12.3417 14.4512 12.6583 14.4512 12.8536 14.6464L13.5 15.2929L16.1464 12.6464C16.3417 12.4512 16.6583 12.4512 16.8536 12.6464Z" fill="#212121"/>
</svg>

<svg xmlns="http://www.w3.org/2000/svg" width="20" height="20"><path d="M6.5 2a2.5 2.5 0 0 0-2.456 2.03c.15-.02.302-.03.456-.03h8A3.5 3.5 0 0 1 16 7.5v1.707c.742.21 1.421.572 2 1.05V6a4 4 0 0 0-4-4H6.5ZM15 7.5v1.522A5.5 5.5 0 0 0 9.207 16H9.16l-2.579 1.842A1 1 0 0 1 5 17.028V16h-.5A2.5 2.5 0 0 1 2 13.5v-6A2.5 2.5 0 0 1 4.5 5h8A2.5 2.5 0 0 1 15 7.5Zm4 7a4.5 4.5 0 1 0-9 0 4.5 4.5 0 0 0 9 0Zm-2.146-1.854a.5.5 0 0 1 0 .708l-3 3a.5.5 0 0 1-.708 0l-1-1a.5.5 0 0 1 .708-.708l.646.647 2.646-2.647a.5.5 0 0 1 .708 0Z"/></svg>
